X:153
T:153  Old Dolly My Comical Bride   (Pe)
M: 9/8
L: 1/8
S: a little rebarring & messing around  AH
Z:Chris Pollington 2008
K:C
G|GAB cBA B2 d| GAB cBd c2 B |GAB  GAB cBd| cBA GAB c2:|
|:g|f>ed ABc d2a|g>fe dAc B2 G|BAG BAG ABc|Bdc BAB c2:|





%wordsfont Times-Roman 13.0
%vocalfont Times-Roman 13.0
